!!!OTL: Kriegslied.
!!!OTL-incipit:AUF AUF WER DEUTSCHE FREIHEIT LIEBET
!!!COM: J. R. Zumsteeg
!!!ARE: Europa, Mitteleuropa, Deutschland
!!!SCT: F0418
!!!TXL: @@DE
!!!YEM: Copyright 1995, estate of Helmut Schaffrath.
**kern	**text
*ICvox	*
*clefG2	*
*M4/4	*
*met(c)	*
*k[f#c#]	*
*D:	*
!LO:TX:a:t=Mit Kraft.	!
{8a	1._Auf,
=1	=1
4.dd	auf,
8d	wer
8.d	teutſche
16e	.
8.f#	Freiheit
16g#	.
=2	=2
8.aL	lie-
16g#J	.
4a	-bet,
8r}	.
{8a	wer
8f#	Luſt
8d	für
=3	=3
4.b	Gott
8b	ʒu
4.a	ſech-
8g	-ten
=4	=4
4f#	hat;
4r	.
4r	.
8r}	.
{8a	der
=5	=5
4.dd	Schein,
8b	den
8.g#	Mancher
16e	.
8.f#	von
16g#	ſich
=6	=6
8.aL	gie-
16g#J	.
4a	-bet,
8r}	.
{8a	ver-
8a	-bringet
8cc#	.
=7	=7
4.b	kei-
8b	-ne
4ee	Rit-
4g#	-ter-
=8	=8
4a	-that.
4r	.
8r}	.
{8a	Wenn
8a	Fug
8a	und
=9	=9
4.b/	Ur-
8b/	-ſach'
4.a	iſt
8a	ʒu
=10	=10
4g	brechen,
4g	.
8r}	.
{8e	wenn
8e	Feind
8g	nicht
=11	=11
4.f#	Freund
8a	mehr
(4a	blei-
16bqqL	.
16aqqJ	.
8g)	.
8f#	-ben
=12	=12
8fqq	.
4e	kann,
4r	.
8r}	.
{8a	da
8b/	muß
8cc#	man
=13	=13
4.dd	nur
8dd	vom
4.ee	Se-
8g	-hen
=14	=14
4g	ſprechen,
4f#	.
8r}	.
{8dd	da
8dd	ʒeigt
8dd	das
=15	=15
4.e	Herʒe
8b	.
4.a	ſei-
8g	-nen
=16	=16
2f#	Mann,
8.r}	.
{16dd	da
8.cc#	ʒeigt
16dd	das
=17	=17
4b	Her-
4g	-ʒe
4e	ſei-
4a	-nen
=18	=18
4d	Mann.
2r	.
8r}	.
==	==
!!!AGN: Vaterlands -, Heimat - Lied, nationalistisch, Krieg
!!!ONB: ESAC (Essen Associative Code) Database: FINK
!!!AMT: simple quadruple
!!!AIN: vox
!!!EED: Helmut Schaffrath
!!!EEV: 1.0
!!Text: M. Opitz
!!!GTL: Vaterlands- und Heimathslieder
!!!source: Musikalischer Hausschatz der Deutschen. Eine Sammlung von über 1000 Liedern und Gesängen mit Singstimmen und Klavierbegleitung. Leipzig, Litterarisches Verlags-Haus.
!!!page: 256
!!!URL-scan: https://www.digitale-sammlungen.de/en/view/bsb11144622?page=246,247
!!!ENC: Anna Maria Matuszewska
!!!EEV: 2024/07/31
*-	*-
